Sardi-Ghost-Flexible-Baltic/scalable/apps/locale.svg

<svg xmlns="http://www.w3.org/2000/svg" width="48" height="48">
 id=&quot;defs2385&quot; /&gt;
 <g>
  <path d="M 11.125,6 C 10.715944,6.0062414 10.318851,6.0430621 9.90625,6.09375 C 8.9090928,6.2162505 7.890863,6.5212218 6.875,6.96875 C 6.7664039,6.9826838 6.6608328,7.0143551 6.5625,7.0625 C 6.5194269,7.080393 6.4776583,7.1012773 6.4375,7.125 C 6.4268544,7.1351852 6.4164352,7.1456044 6.40625,7.15625 C 6.3609753,7.1941453 6.3191453,7.2359753 6.28125,7.28125 C 6.2706044,7.2914352 6.2601852,7.3018544 6.25,7.3125 C 6.2393544,7.3226852 6.2289352,7.3331044 6.21875,7.34375 C 6.2081044,7.3539352 6.1976852,7.3643544 6.1875,7.375 C 6.1763585,7.395463 6.1659355,7.416309 6.15625,7.4375 C 6.1456044,7.4476852 6.1351852,7.4581044 6.125,7.46875 C 6.1143544,7.4789352 6.1039352,7.4893544 6.09375,7.5 C 6.0930989,7.5208282 6.0930989,7.5416718 6.09375,7.5625 C 6.0831044,7.5726852 6.0726852,7.5831044 6.0625,7.59375 C 6.0518544,7.6039352 6.0414352,7.6143544 6.03125,7.625 C 6.0305989,7.6458282 6.0305989,7.6666718 6.03125,7.6875 C 6.0201085,7.707963 6.0096855,7.728809 6,7.75 C 5.9993489,7.7708282 5.9993489,7.7916718 6,7.8125 C 5.9998372,7.822916 5.9998372,7.833334 6,7.84375 C 5.9993489,7.8645782 5.9993489,7.8854218 6,7.90625 C 5.9998372,7.916666 5.9998372,7.927084 6,7.9375 C 5.9998372,7.947916 5.9998372,7.958334 6,7.96875 C 5.9959252,8.0207536 5.9959252,8.0729964 6,8.125 L 6,28 C 5.9985345,28.031233 5.9985345,28.062517 6,28.09375 L 6,28.1875 C 5.9998372,28.197916 5.9998372,28.208334 6,28.21875 C 6.00444,28.2821 6.0149039,28.344884 6.03125,28.40625 C 6.048354,28.504137 6.079951,28.598928 6.125,28.6875 C 6.1346855,28.708691 6.1451085,28.729537 6.15625,28.75 C 6.1853919,28.783289 6.2167107,28.814608 6.25,28.84375 C 6.5772643,29.22893 7.140476,29.309388 7.5625,29.03125 C 9.0554762,28.360635 10.527444,28.190753 12,28.28125 L 12,34 C 11.998534,34.031233 11.998534,34.062517 12,34.09375 L 12,34.1875 C 11.999837,34.197916 11.999837,34.208334 12,34.21875 C 12.00444,34.2821 12.014904,34.344884 12.03125,34.40625 C 12.048354,34.504137 12.079951,34.598928 12.125,34.6875 C 12.161338,34.743631 12.203215,34.795976 12.25,34.84375 C 12.577264,35.22893 13.140476,35.309388 13.5625,35.03125 C 15.055476,34.360635 16.527444,34.190753 18,34.28125 L 18,40.1875 C 17.997619,40.533378 18.176156,40.846789 18.46875,41.03125 C 18.761344,41.215711 19.126453,41.245034 19.4375,41.09375 C 23.210633,39.333389 26.808991,40.593017 30.75,42.03125 C 34.691009,43.469483 38.946378,45.069859 43.40625,43 C 43.764824,42.840567 43.997022,42.48616 44,42.09375 L 44,21.875 C 43.99742,21.537826 43.814677,21.213903 43.53125,21.03125 C 43.247825,20.848597 42.901873,20.831807 42.59375,20.96875 C 41.063524,21.654259 39.537473,21.793531 38,21.65625 L 38,16.0625 C 38.005872,16.000138 38.005872,15.937362 38,15.875 C 38.001466,15.843767 38.001466,15.812483 38,15.78125 C 37.997695,15.707403 37.987215,15.634039 37.96875,15.5625 C 37.94232,15.507672 37.91094,15.455372 37.875,15.40625 C 37.875163,15.395834 37.875163,15.385416 37.875,15.375 C 37.838662,15.318869 37.796785,15.266524 37.75,15.21875 C 37.740315,15.197559 37.729892,15.176713 37.71875,15.15625 C 37.708334,15.156087 37.697916,15.156087 37.6875,15.15625 C 37.667598,15.134506 37.646744,15.113652 37.625,15.09375 C 37.614584,15.093587 37.604166,15.093587 37.59375,15.09375 C 37.573848,15.072006 37.552994,15.051152 37.53125,15.03125 C 37.198963,14.814228 36.769787,14.814228 36.4375,15.03125 C 36.426854,15.041435 36.416435,15.051854 36.40625,15.0625 C 34.934995,15.677888 33.479928,15.823143 32,15.6875 L 32,10.0625 C 32.005872,10.000138 32.005872,9.9373621 32,9.875 C 32.001466,9.8437672 32.001466,9.8124828 32,9.78125 C 31.997695,9.7074029 31.987215,9.6340385 31.96875,9.5625 C 31.94232,9.5076724 31.91094,9.455372 31.875,9.40625 C 31.875163,9.395834 31.875163,9.385416 31.875,9.375 C 31.838662,9.3188689 31.796785,9.2665236 31.75,9.21875 C 31.740315,9.197559 31.729892,9.176713 31.71875,9.15625 C 31.708334,9.1560872 31.697916,9.1560872 31.6875,9.15625 C 31.667598,9.1345058 31.646744,9.1136521 31.625,9.09375 C 31.614584,9.0935872 31.604166,9.0935872 31.59375,9.09375 C 31.573848,9.0720058 31.552994,9.0511521 31.53125,9.03125 C 31.198963,8.8142283 30.769787,8.8142283 30.4375,9.03125 C 30.426854,9.0414352 30.416435,9.0518544 30.40625,9.0625 C 26.80883,10.567207 23.270763,9.279994 19.375,7.875 C 16.773277,6.9366972 13.98839,5.9563101 11.125,6 z M 11.21875,8 C 13.639207,7.9809185 16.093027,8.8455619 18.6875,9.78125 C 22.221131,11.055642 26.039602,12.320641 30,11.1875 L 30,15.34375 C 28.496861,14.991505 26.969374,14.450006 25.375,13.875 C 22.401602,12.802654 19.207056,11.688247 15.90625,12.09375 C 14.909093,12.21625 13.890863,12.521222 12.875,12.96875 C 12.766404,12.982684 12.660833,13.014355 12.5625,13.0625 C 12.519427,13.080393 12.477658,13.101277 12.4375,13.125 C 12.426854,13.135185 12.416435,13.145604 12.40625,13.15625 C 12.360975,13.194145 12.319145,13.235975 12.28125,13.28125 C 12.270604,13.291435 12.260185,13.301854 12.25,13.3125 C 12.239354,13.322685 12.228935,13.333104 12.21875,13.34375 C 12.208104,13.353935 12.197685,13.364354 12.1875,13.375 C 12.176358,13.395463 12.165935,13.416309 12.15625,13.4375 C 12.145604,13.447685 12.135185,13.458104 12.125,13.46875 C 12.114354,13.478935 12.103935,13.489354 12.09375,13.5 C 12.093099,13.520828 12.093099,13.541672 12.09375,13.5625 C 12.083104,13.572685 12.072685,13.583104 12.0625,13.59375 C 12.051854,13.603935 12.041435,13.614354 12.03125,13.625 C 12.030599,13.645828 12.030599,13.666672 12.03125,13.6875 C 12.020108,13.707963 12.009685,13.728809 12,13.75 C 11.999349,13.770828 11.999349,13.791672 12,13.8125 C 11.999837,13.822916 11.999837,13.833334 12,13.84375 C 11.999349,13.864578 11.999349,13.885422 12,13.90625 C 11.999837,13.916666 11.999837,13.927084 12,13.9375 C 11.999837,13.947916 11.999837,13.958334 12,13.96875 C 11.995925,14.020754 11.995925,14.072996 12,14.125 L 12,26.375 C 10.690815,26.321998 9.3499968,26.430328 8,26.84375 L 8,8.71875 C 8.7357689,8.4258691 9.4548873,8.1501576 10.1875,8.0625 C 10.532448,8.0212267 10.87297,8.0027259 11.21875,8 z M 17.21875,14 C 19.639207,13.980919 22.093027,14.845562 24.6875,15.78125 C 26.395799,16.397342 28.174706,17.001945 30,17.34375 L 30,19.40625 C 27.42015,18.515449 24.709859,17.74921 21.90625,18.09375 C 20.806002,18.228961 19.685217,18.526056 18.5625,19.0625 C 18.216115,19.231043 17.99732,19.583546 18,19.96875 L 18,27.65625 C 16.700002,27.21073 15.374607,26.831719 14,26.59375 L 14,14.71875 C 14.735769,14.425869 15.454887,14.150158 16.1875,14.0625 C 16.532449,14.021227 16.87297,14.002726 17.21875,14 z M 36,17.1875 L 36,21.34375 C 34.696472,21.039528 33.369606,20.584406 32,20.09375 L 32,17.59375 C 33.316783,17.672093 34.644217,17.575414 36,17.1875 z M 14,28.5625 C 15.306645,28.844074 16.640189,29.289851 18,29.78125 L 18,32.375 C 16.690815,32.321998 15.349997,32.430328 14,32.84375 L 14,28.5625 z" fill="#3a3a3a"/>
 </g>
</svg>

<?xml version="1.0" encoding="UTF-8"?>
<svg width="48" height="48" version="1.1" xmlns="http://www.w3.org/2000/svg">id="defs2385" /&gt;
 <path d="m11.125 6c-0.40906 0.0062414-0.80615 0.043062-1.2188 0.09375-0.99716 0.1225-2.0154 0.42747-3.0312 0.875-0.1086 0.013934-0.21417 0.045605-0.3125 0.09375-0.043073 0.017893-0.084842 0.038777-0.125 0.0625-0.010646 0.010185-0.021065 0.020604-0.03125 0.03125-0.045275 0.037895-0.087105 0.079725-0.125 0.125-0.010646 0.010185-0.021065 0.020604-0.03125 0.03125-0.010646 0.010185-0.021065 0.020604-0.03125 0.03125-0.010646 0.010185-0.021065 0.020604-0.03125 0.03125-0.011142 0.020463-0.021564 0.041309-0.03125 0.0625-0.010646 0.010185-0.021065 0.020604-0.03125 0.03125-0.010646 0.010185-0.021065 0.020604-0.03125 0.03125-6.511e-4 0.020828-6.511e-4 0.041672 0 0.0625-0.010646 0.010185-0.021065 0.020604-0.03125 0.03125-0.010646 0.010185-0.021065 0.020604-0.03125 0.03125-6.511e-4 0.020828-6.511e-4 0.041672 0 0.0625-0.011142 0.020463-0.021564 0.041309-0.03125 0.0625-6.511e-4 0.020828-6.511e-4 0.041672 0 0.0625-1.628e-4 0.010416-1.628e-4 0.020834 0 0.03125-6.511e-4 0.020828-6.511e-4 0.041672 0 0.0625-1.628e-4 0.010416-1.628e-4 0.020834 0 0.03125-1.628e-4 0.010416-1.628e-4 0.020834 0 0.03125-0.0040748 0.052004-0.0040748 0.10425 0 0.15625v19.875c-0.0014655 0.031233-0.0014655 0.062517 0 0.09375v0.09375c-1.628e-4 0.010416-1.628e-4 0.020834 0 0.03125 0.00444 0.06335 0.014904 0.12613 0.03125 0.1875 0.017104 0.097887 0.048701 0.19268 0.09375 0.28125 0.0096855 0.021191 0.020108 0.042037 0.03125 0.0625 0.029142 0.033289 0.060461 0.064608 0.09375 0.09375 0.32726 0.38518 0.89048 0.46564 1.3125 0.1875 1.493-0.67062 2.9649-0.8405 4.4375-0.75v5.7188c-0.001466 0.031233-0.001466 0.062517 0 0.09375v0.09375c-1.63e-4 0.010416-1.63e-4 0.020834 0 0.03125 0.00444 0.06335 0.014904 0.12613 0.03125 0.1875 0.017104 0.097887 0.048701 0.19268 0.09375 0.28125 0.036338 0.056131 0.078215 0.10848 0.125 0.15625 0.32726 0.38518 0.89048 0.46564 1.3125 0.1875 1.493-0.67062 2.9649-0.8405 4.4375-0.75v5.9062c-0.002381 0.34588 0.17616 0.65929 0.46875 0.84375s0.6577 0.21378 0.96875 0.0625c3.7731-1.7604 7.3715-0.50073 11.312 0.9375s8.1964 3.0386 12.656 0.96875c0.35857-0.15943 0.59077-0.51384 0.59375-0.90625v-20.219c-0.00258-0.33717-0.18532-0.6611-0.46875-0.84375-0.28342-0.18265-0.62938-0.19944-0.9375-0.0625-1.5302 0.68551-3.0563 0.82478-4.5938 0.6875v-5.5938c0.005872-0.062362 0.005872-0.12514 0-0.1875 0.001466-0.031233 0.001466-0.062517 0-0.09375-0.002305-0.073847-0.012785-0.14721-0.03125-0.21875-0.02643-0.054828-0.05781-0.10713-0.09375-0.15625 1.63e-4 -0.010416 1.63e-4 -0.020834 0-0.03125-0.036338-0.056131-0.078215-0.10848-0.125-0.15625-0.009685-0.021191-0.020108-0.042037-0.03125-0.0625-0.010416-1.63e-4 -0.020834-1.63e-4 -0.03125 0-0.019902-0.021744-0.040756-0.042598-0.0625-0.0625-0.010416-1.63e-4 -0.020834-1.63e-4 -0.03125 0-0.019902-0.021744-0.040756-0.042598-0.0625-0.0625-0.33229-0.21702-0.76146-0.21702-1.0938 0-0.010646 0.010185-0.021065 0.020604-0.03125 0.03125-1.4713 0.61539-2.9263 0.76064-4.4062 0.625v-5.625c0.005872-0.062362 0.005872-0.12514 0-0.1875 0.001466-0.031233 0.001466-0.062517 0-0.09375-0.002305-0.073847-0.012785-0.14721-0.03125-0.21875-0.02643-0.054828-0.05781-0.10713-0.09375-0.15625 1.63e-4 -0.010416 1.63e-4 -0.020834 0-0.03125-0.036338-0.056131-0.078215-0.10848-0.125-0.15625-0.009685-0.021191-0.020108-0.042037-0.03125-0.0625-0.010416-1.628e-4 -0.020834-1.628e-4 -0.03125 0-0.019902-0.021744-0.040756-0.042598-0.0625-0.0625-0.010416-1.628e-4 -0.020834-1.628e-4 -0.03125 0-0.019902-0.021744-0.040756-0.042598-0.0625-0.0625-0.33229-0.21702-0.76146-0.21702-1.0938 0-0.010646 0.010185-0.021065 0.020604-0.03125 0.03125-3.5974 1.5047-7.1355 0.21749-11.031-1.1875-2.6017-0.9383-5.3866-1.9187-8.25-1.875zm0.09375 2c2.4205-0.019082 4.8743 0.84556 7.4688 1.7812 3.5336 1.2744 7.3521 2.5394 11.312 1.4062v4.1562c-1.5031-0.35224-3.0306-0.89374-4.625-1.4688-2.9734-1.0723-6.1679-2.1868-9.4688-1.7812-0.99716 0.1225-2.0154 0.42747-3.0312 0.875-0.1086 0.013934-0.21417 0.045605-0.3125 0.09375-0.043073 0.017893-0.084842 0.038777-0.125 0.0625-0.010646 0.010185-0.021065 0.020604-0.03125 0.03125-0.045275 0.037895-0.087105 0.079725-0.125 0.125-0.010646 0.010185-0.021065 0.020604-0.03125 0.03125-0.010646 0.010185-0.021065 0.020604-0.03125 0.03125-0.010646 0.010185-0.021065 0.020604-0.03125 0.03125-0.011142 0.020463-0.021565 0.041309-0.03125 0.0625-0.010646 0.010185-0.021065 0.020604-0.03125 0.03125-0.010646 0.010185-0.021065 0.020604-0.03125 0.03125-6.51e-4 0.020828-6.51e-4 0.041672 0 0.0625-0.010646 0.010185-0.021065 0.020604-0.03125 0.03125-0.010646 0.010185-0.021065 0.020604-0.03125 0.03125-6.51e-4 0.020828-6.51e-4 0.041672 0 0.0625-0.011142 0.020463-0.021565 0.041309-0.03125 0.0625-6.51e-4 0.020828-6.51e-4 0.041672 0 0.0625-1.63e-4 0.010416-1.63e-4 0.020834 0 0.03125-6.51e-4 0.020828-6.51e-4 0.041672 0 0.0625-1.63e-4 0.010416-1.63e-4 0.020834 0 0.03125-1.63e-4 0.010416-1.63e-4 0.020834 0 0.03125-0.004075 0.052004-0.004075 0.10425 0 0.15625v12.25c-1.3092-0.053002-2.65 0.055328-4 0.46875v-18.125c0.73577-0.29288 1.4549-0.56859 2.1875-0.65625 0.34495-0.041273 0.68547-0.059774 1.0312-0.0625zm6 6c2.4205-0.019081 4.8743 0.84556 7.4688 1.7812 1.7083 0.61609 3.4872 1.2207 5.3125 1.5625v2.0625c-2.5798-0.8908-5.2901-1.657-8.0938-1.3125-1.1002 0.13521-2.221 0.43231-3.3438 0.96875-0.34638 0.16854-0.56518 0.52105-0.5625 0.90625v7.6875c-1.3-0.44552-2.6254-0.82453-4-1.0625v-11.875c0.73577-0.29288 1.4549-0.56859 2.1875-0.65625 0.34495-0.041273 0.68547-0.059774 1.0312-0.0625zm18.781 3.1875v4.1562c-1.3035-0.30422-2.6304-0.75934-4-1.25v-2.5c1.3168 0.078343 2.6442-0.018336 4-0.40625zm-22 11.375c1.3066 0.28157 2.6402 0.72735 4 1.2188v2.5938c-1.3092-0.053002-2.65 0.055328-4 0.46875v-4.2812z" fill="#3a3a3a"/>
</svg>
